X: 33466
T: Rachel's
R: reel
M: 4/4
K: Dminor
|:DFAF DFAF|DEDF DGEA|DFAF DFAF|EFED ^CEA,^C|DFAF DFAF|
DEDF DGEb,|AGA^c db,AG|1 FED^C DFAF:|2 FED^C D2 A^c||
|:d3^c d2 d^c|db,AG FED^C|Ad2^c d2 de|fefa gfe^c|
d3^c d2 d^c|db,AG FED^C|DFAF EGb,G|ABAG FED^C:|

